!!!OTL: Cumbernauld House 
!!!id: HA047
**kern
*clefF4
*k[b-e-a-]
*E-:
*M2/2
{8.e-
16f
=1
8.g
16f
8.g
16a-
4g
8.f
16e-
=2
8.c
16B-
8c
8e-
4f}
{8g
8b-
=3
4cc
8ee-
8cc
16b-
8.g
8.f
16e-
=4
4c
8.e-
16f
4.e-}
{8f
=5
8.g
16f
8g
8b-
4g
8f
8e-
=6
8.c
16B-
8c
8e-
4f}
{8g
8b-
=7
8.cc
16b-
16cc
8.ee-
16b-
8.g
8.f
16e-
=8
4c
8.e-
16f
4e-}
{8.g
16f
=9
8.e-
16f
8.g
16a-
4.b-
8cc
=10
16b-
8.g
8.f
16e-
4b-}
{8ee-
8dd
=11
8.cc
16dd
8ee-
8ff
4dd
8cc
8b-
=12
4g
8.cc
16dd
4.cc}
{8cc
=13
8dd
8cc
8b-
8a-
4g
4cc
=14
16b-
8.g
8f
8e-
4f}
{8g
8b-
=15
8cc
8b-
8cc
8ee-
8b-
8g
8f
8e-
=16
4c
8.e-
16f
4e-}
==
*-
!!!minrhy: 16
!!!meter: 2/2 
!!!cut: Cumbernauld House 
!!!key: HA047  16 Eb 2/2 
!!!fog: a--b--av-bw-c--d--cw--bw'
!! Haydn: Volksliedbearbeitungen, Bd1
